icons/op-bcf-16.svg

<svg width="16" height="16" viewBox="0 0 16 16" fill="none" xmlns="http://www.w3.org/2000/svg">
<path d="M8.9656 3.78805C9.48343 4.45238 10.1558 5.51667 10.5283 6.92777C10.9118 8.38078 10.8619 9.54462 10.7445 10.3089C10.9096 10.2756 11.0484 10.242 11.1557 10.2132C11.466 10.1301 11.7325 9.97874 11.9476 9.76356C12.1462 9.56494 12.2948 9.32128 12.4037 9.05443C12.2469 8.07119 12.013 7.11513 11.8661 6.55845C11.7168 5.99284 11.4423 5.02742 11.0813 4.07716C10.9515 3.73548 10.8104 3.39591 10.66 3.07742C10.388 2.50162 10.0853 1.99514 9.76249 1.67226C9.73321 1.64294 9.70353 1.61409 9.67375 1.58554C9.47544 1.39565 9.2665 1.22298 9.04921 1.06713L9.03311 1.05556C9.01565 1.043 8.9982 1.03045 8.98062 1.01819C6.7517 -0.530658 3.65803 -0.312482 1.67279 1.67292C-0.315217 3.66109 -0.531247 6.76083 1.02473 8.99063C1.04502 8.89775 1.06727 8.8049 1.09212 8.71209C1.28367 7.99706 1.8665 7.12409 2.52681 6.30592C2.72089 5.25582 3.41988 4.25262 3.83608 3.83643C4.29036 3.38215 5.29512 2.68491 6.3401 2.50682C6.69697 2.44602 7.05844 2.44588 7.40432 2.5366C7.74051 2.62475 8.0619 2.79848 8.34982 3.08635C8.38963 3.12616 8.44046 3.1781 8.50006 3.24173C8.62378 3.37382 8.78531 3.55669 8.9656 3.78805Z" fill="black"/>
<path d="M10.3264 10.7176C9.49219 10.8339 8.23432 10.8841 6.82624 10.5011C5.37613 10.1068 4.39329 9.48159 3.79014 8.99783C3.73634 9.15744 3.69606 9.29443 3.66735 9.40177C3.5842 9.71212 3.58197 10.0185 3.66079 10.3124C3.73347 10.5839 3.87022 10.8343 4.04674 11.0621C4.97662 11.4179 5.92152 11.6934 6.47703 11.8444C7.04144 11.9979 8.01479 12.2429 9.01812 12.4054C9.37889 12.4638 9.74349 12.5114 10.0945 12.5404C10.7292 12.5927 11.3191 12.5838 11.7601 12.4657C11.8002 12.455 11.8399 12.4437 11.8795 12.4321C12.1432 12.3553 12.3971 12.2607 12.6407 12.1505C12.6664 12.1388 12.6921 12.1275 12.7174 12.1155C15.1732 10.9595 16.5311 8.17107 15.8045 5.45891C15.0768 2.74302 12.5005 1.00607 9.7916 1.2388C9.86185 1.30284 9.93111 1.36853 9.9991 1.43643C10.5225 1.95986 10.9871 2.90113 11.3654 3.88214C12.1777 4.57534 12.697 5.68225 12.8493 6.25082C13.0156 6.87141 13.1169 8.09028 12.7487 9.08431C12.623 9.42379 12.4422 9.73698 12.1908 9.99117C11.9463 10.2382 11.6352 10.4297 11.242 10.5352C11.1875 10.5497 11.1172 10.5677 11.0322 10.5876C10.8561 10.6286 10.6169 10.6771 10.3264 10.7176Z" fill="black"/>
<path d="M5.58202 5.50745C4.54628 6.5355 3.96085 7.65 3.64451 8.43066C3.53435 8.70247 3.45667 8.93387 3.40417 9.10698C3.37885 9.1904 3.35933 9.26036 3.3447 9.31483C3.23944 9.7081 3.24963 10.0733 3.34137 10.4086C3.43578 10.7535 3.6166 11.0665 3.84775 11.3451C4.52446 12.1611 5.63059 12.6827 6.25116 12.849C6.81963 13.0014 8.03786 13.1052 9.04426 12.7482C10.083 12.911 11.1303 12.9794 11.8453 12.7878C11.9381 12.7629 12.0296 12.7357 12.1202 12.7068C10.9673 15.1693 8.17494 16.5322 5.4593 15.8044C2.74735 15.0777 1.01162 12.5074 1.23841 9.80258C1.24046 9.77865 1.24285 9.75476 1.24525 9.7308L1.24647 9.71863C1.27282 9.45251 1.31786 9.18526 1.38318 8.91855C1.39294 8.87847 1.40317 8.83833 1.4139 8.79838C1.53205 8.3573 1.81931 7.84196 2.18198 7.31849C2.38248 7.02896 2.60604 6.73702 2.83703 6.45375C3.47942 5.6659 4.17818 4.94547 4.59335 4.53341C5.00185 4.1278 5.71294 3.44716 6.48595 2.81981C6.7715 2.7807 7.05678 2.78753 7.32811 2.86022C7.62206 2.93901 7.88629 3.09409 8.11348 3.3213C8.19206 3.39985 8.29057 3.50326 8.40183 3.62959C7.68139 3.91006 6.64854 4.44872 5.58202 5.50745Z" fill="black"/>
</svg>

<svg xmlns="http://www.w3.org/2000/svg" width="16" height="16" viewBox="0 0 16 16"><path d="M8.966 3.788a8.806 8.806 0 0 1 1.562 3.14c.384 1.453.334 2.617.217 3.381.165-.033.303-.067.411-.096.31-.083.576-.234.792-.449.198-.199.347-.443.456-.71a26.774 26.774 0 0 0-.538-2.496 25.863 25.863 0 0 0-.785-2.481c-.13-.342-.271-.681-.421-1-.272-.575-.575-1.082-.898-1.405l-.088-.086a5.752 5.752 0 0 0-.625-.519l-.016-.011a5.73 5.73 0 0 0-7.36.617 5.731 5.731 0 0 0-.648 7.318c.02-.093.042-.186.067-.279.192-.715.775-1.588 1.435-2.406.194-1.05.893-2.053 1.309-2.47.454-.454 1.459-1.151 2.504-1.329a2.51 2.51 0 0 1 1.064.03c.337.088.658.261.946.549a8.104 8.104 0 0 1 .616.702Z"/><path d="M10.326 10.718a8.804 8.804 0 0 1-3.5-.217c-1.45-.394-2.433-1.019-3.036-1.503a6.497 6.497 0 0 0-.123.404c-.083.31-.085.616-.006.91.072.272.209.522.386.75.93.356 1.875.631 2.43.782.564.154 1.538.399 2.541.561.361.059.725.106 1.077.135.634.053 1.224.044 1.665-.074l.12-.034c.263-.077.517-.171.761-.282l.076-.034a5.733 5.733 0 0 0 3.088-6.657 5.73 5.73 0 0 0-6.013-4.22c.07.064.139.13.207.197.524.524.988 1.465 1.366 2.446.813.693 1.332 1.8 1.484 2.369.167.62.268 1.839-.1 2.833-.126.34-.307.653-.558.907a2.06 2.06 0 0 1-.949.544 8.137 8.137 0 0 1-.916.183Z"/><path d="M5.582 5.507a8.783 8.783 0 0 0-2.178 3.6 5.24 5.24 0 0 0-.059.208 2.061 2.061 0 0 0-.004 1.094c.095.345.276.657.507.936.676.816 1.783 1.338 2.403 1.504.569.152 1.787.256 2.793-.101 1.039.163 2.086.231 2.801.04.093-.025.185-.052.275-.081a5.73 5.73 0 0 1-6.661 3.097 5.73 5.73 0 0 1-4.221-6.001l.007-.072.001-.012a5.87 5.87 0 0 1 .168-.921c.118-.441.405-.956.768-1.48.2-.289.424-.581.655-.864a25.826 25.826 0 0 1 1.756-1.921A26.887 26.887 0 0 1 6.486 2.82c.285-.039.571-.032.842.04.294.079.558.234.785.461.079.079.178.182.289.309-.721.28-1.753.819-2.82 1.877Z"/></svg>
